X: 1604
T: Coey's Hornpipe
M:C|
L:1/8
R:Hornpipe
B:O'Neill's 1604
N:"Collected by J.O'Neill."
Z:Transcribed by Michael D. Long, 10/02/98
K:G
(3(DEF)|GdBG FcAF|GABG D2 (GF)|EGAB cBAG|FAd^c (3(fed) (3(ecA)|\
GdBG FcAF|GABG D2 (GF)|E>edc BAGF|A2 G2 G2:|
||(AG)|FAd^c dBAG|FAd^c dfed|^cdef gecg|d^cde d2 d=c|\
BcBA GBec|ABAG FAdf|egfe dcBA|G2 B2 G2:|


